X:1
T: The Earl of Homes
C:Nathaniel Gow
R:Strathspey
Q: 128
K:F
M:4/4
L:1/16
f2|:cF3 c3A d2G2 B2d2|cF3 c3A d2B2 c2A2|Bd3 Ac3 G3A B2d2|c2F2 c3A c2F2 A2f2:|
|:f3g a2f2 e3f g2a2|f3g a3f g2e2 f2d2|c2A2 f3A G3A B2d2|c2F2 c3A c2F2 A2c2|
fefg a2f2 e3f g2a2|f3g a3f g2e2 f2d2|c2A2 f3A G3A B2d2|c2A2 c2de f2c2 df3:|
|:cF3 c3A d2G2 B2d2|cF3 c3A d2B2 c2A2|Bd3 Ac3 G3A B2d2|1c2F2 c3A c2F2 A2f2:|2c2F2 c3A c2F2 F2||
